public/images/webdev.svg

<svg xmlns="http://www.w3.org/2000/svg" xmlns:xlink="http://www.w3.org/1999/xlink" width="1080" zoomAndPan="magnify" viewBox="0 0 810 809.999993" height="1080" preserveAspectRatio="xMidYMid meet" version="1.0"><defs><clipPath id="83cf7329ce"><path d="M 125 410.230469 L 685.285156 410.230469 L 685.285156 731.960938 L 125 731.960938 Z M 125 410.230469 " clip-rule="nonzero"/></clipPath><clipPath id="b3488e4520"><path d="M 0.484375 706.503906 L 809.601562 706.503906 L 809.601562 731.960938 L 0.484375 731.960938 Z M 0.484375 706.503906 " clip-rule="nonzero"/></clipPath><clipPath id="49586f10f0"><path d="M 191.441406 660 L 619 660 L 619 731.960938 L 191.441406 731.960938 Z M 191.441406 660 " clip-rule="nonzero"/></clipPath></defs><path fill="#fb653e" d="M 512.113281 245.539062 C 508.625 245.539062 505.21875 244.097656 502.800781 241.542969 C 500.855469 239.496094 499.671875 237.128906 497.699219 233.21875 C 494.304688 226.464844 487.996094 213.90625 474.953125 197.382812 C 469.5625 190.550781 467.433594 188.253906 465.933594 186.789062 C 464.914062 185.792969 462.53125 183.558594 459.101562 180.917969 C 455.945312 184.335938 452.40625 187.285156 448.523438 189.710938 C 435.207031 198.019531 421.746094 197.691406 411.929688 197.453125 L 411.226562 197.4375 C 410.917969 197.425781 380.265625 196.734375 347.558594 198.996094 L 345.988281 199.097656 C 335.402344 199.820312 324.441406 200.574219 316.230469 204.945312 C 308.402344 209.121094 303.796875 217.898438 300.847656 234.308594 C 299.972656 239.125 296.597656 243.121094 292.007812 244.742188 C 286.410156 246.710938 280.425781 244.84375 276.757812 239.972656 C 270.453125 231.597656 269.230469 220.460938 268.335938 212.328125 L 268.300781 212.050781 C 267.042969 200.582031 264.597656 172.730469 269.125 161.945312 C 271.578125 156.117188 278.933594 140.933594 294.316406 126.066406 C 324.539062 96.867188 374.273438 85.390625 383.9375 83.382812 C 402.808594 79.464844 420.855469 78.070312 437.574219 79.234375 C 449.34375 80.050781 459.316406 81.523438 468.042969 83.734375 C 479.730469 86.691406 488.902344 92.445312 494.578125 100.367188 C 497.511719 104.464844 499.3125 108.65625 500.890625 112.359375 C 502.347656 115.773438 503.609375 118.710938 505.332031 120.546875 C 507.722656 123.109375 510.980469 125.425781 514.429688 127.886719 C 518.261719 130.621094 522.605469 133.714844 526.523438 137.710938 C 536.09375 147.464844 546.90625 163.804688 548.578125 180.417969 C 550.136719 195.953125 543.398438 209.386719 537.363281 219.355469 C 536.667969 220.496094 533.332031 225.675781 530.015625 230.542969 C 523.285156 240.378906 520.035156 244.757812 513.460938 245.46875 C 513.011719 245.511719 512.558594 245.539062 512.113281 245.539062 Z M 456.359375 151.976562 C 462.015625 151.976562 466.691406 155.242188 469.664062 157.324219 L 469.949219 157.519531 C 476.625 162.167969 481.375 166.53125 483.613281 168.71875 C 486.050781 171.09375 488.878906 174.222656 494.800781 181.722656 C 503.4375 192.667969 509.445312 202.058594 513.691406 209.457031 C 514.597656 208.074219 515.328125 206.925781 515.738281 206.25 C 521.679688 196.441406 524.046875 189.25 523.421875 182.949219 C 522.605469 174.882812 516.460938 163.554688 508.46875 155.402344 C 506.121094 153.011719 503.035156 150.808594 499.757812 148.476562 C 495.644531 145.546875 490.988281 142.226562 486.871094 137.828125 C 482.113281 132.746094 479.636719 126.949219 477.648438 122.296875 C 476.410156 119.414062 475.347656 116.9375 474.027344 115.085938 C 471.902344 112.128906 467.582031 109.695312 461.835938 108.246094 C 454.582031 106.402344 446.070312 105.167969 435.816406 104.457031 C 421.402344 103.453125 405.679688 104.6875 389.082031 108.132812 C 365.691406 112.984375 331.4375 125.355469 311.890625 144.25 C 299.820312 155.910156 294.136719 167.757812 292.539062 171.496094 C 292.015625 173.5 291.484375 180.574219 292.050781 192.214844 C 295.402344 188.519531 299.449219 185.238281 304.339844 182.640625 C 317.328125 175.710938 331.644531 174.734375 344.273438 173.878906 L 345.816406 173.773438 C 379.742188 171.425781 410.53125 172.128906 411.828125 172.164062 L 412.546875 172.179688 C 420.972656 172.386719 428.246094 172.558594 435.128906 168.261719 C 438.714844 166.027344 441.792969 162.820312 444.285156 158.722656 C 446.285156 155.402344 449.472656 153.132812 453.273438 152.308594 C 454.328125 152.078125 455.355469 151.976562 456.359375 151.976562 Z M 465.988281 171.699219 C 465.96875 171.726562 465.953125 171.769531 465.925781 171.796875 C 465.953125 171.769531 465.96875 171.726562 465.988281 171.699219 Z M 465.988281 171.699219 " fill-opacity="1" fill-rule="evenodd"/><path fill="#fb653e" d="M 406.253906 418.375 C 399.136719 418.375 391.042969 417.6875 382.332031 415.769531 C 374.566406 414.054688 354.355469 408.316406 334.527344 392.082031 C 325.027344 384.296875 307.597656 367.125 297.691406 339.582031 C 295.171875 332.578125 293.476562 325.101562 292.445312 319.667969 C 285.785156 316.496094 279.671875 311.890625 274.457031 306.0625 C 267.460938 298.242188 262.585938 288.769531 260.347656 278.679688 C 255.792969 258.089844 262.765625 237.917969 279.484375 223.335938 C 284.738281 218.738281 292.730469 219.28125 297.316406 224.542969 C 301.910156 229.796875 301.371094 237.789062 296.105469 242.375 C 283.710938 253.195312 283.246094 265.117188 285.039062 273.21875 C 287.636719 284.964844 296.777344 295.292969 307.261719 298.335938 C 312.070312 299.734375 315.59375 303.832031 316.265625 308.789062 C 317.042969 314.507812 318.871094 323.757812 321.484375 331.027344 C 329.621094 353.65625 344.523438 367.589844 350.550781 372.519531 C 366.152344 385.300781 381.785156 389.757812 387.777344 391.078125 C 404.832031 394.839844 418.890625 392.363281 424.136719 391.121094 C 438.464844 387.742188 448.160156 381.074219 452.304688 378.21875 C 455.296875 376.171875 463.097656 370.375 471.070312 360.9375 C 482.585938 347.304688 491.105469 328.703125 495.703125 307.140625 C 496.78125 302.074219 500.855469 298.175781 505.964844 297.308594 C 514.136719 295.9375 524.542969 281.808594 525.710938 265.648438 C 526.515625 254.503906 522.777344 247.519531 514.589844 244.886719 C 507.945312 242.75 504.285156 235.628906 506.429688 228.984375 C 508.5625 222.339844 515.679688 218.679688 522.332031 220.824219 C 532.75 224.167969 540.851562 230.84375 545.773438 240.136719 C 549.878906 247.878906 551.65625 257.335938 550.925781 267.46875 C 549.425781 288.257812 537.285156 311.445312 518.742188 319.648438 C 512.945312 342.46875 503.429688 361.820312 490.378906 377.257812 C 480.792969 388.601562 471.386719 395.785156 466.628906 399.050781 C 461.769531 402.394531 448.882812 411.257812 429.953125 415.726562 C 424.851562 416.933594 416.578125 418.375 406.253906 418.375 " fill-opacity="1" fill-rule="evenodd"/><path fill="#fb653e" d="M 339.757812 459.042969 C 337.871094 459.042969 335.957031 458.621094 334.148438 457.722656 C 327.898438 454.621094 325.34375 447.042969 328.445312 440.78125 C 331.730469 434.15625 337.296875 420.878906 337.679688 406.3125 C 337.828125 400.730469 337.097656 398.152344 335.878906 393.871094 C 335.539062 392.664062 335.152344 391.292969 334.765625 389.785156 C 333.027344 383.019531 337.105469 376.136719 343.871094 374.402344 C 350.628906 372.664062 357.519531 376.746094 359.253906 383.5 C 359.5625 384.699219 359.878906 385.804688 360.203125 386.972656 C 361.679688 392.167969 363.203125 397.542969 362.957031 406.980469 C 362.449219 426.390625 355.308594 443.535156 351.089844 452.023438 C 348.886719 456.472656 344.410156 459.042969 339.757812 459.042969 " fill-opacity="1" fill-rule="evenodd"/><path fill="#fb653e" d="M 470.066406 462.988281 C 465.644531 462.988281 461.347656 460.65625 459.023438 456.523438 C 452.644531 445.128906 444.921875 427.289062 444.378906 406.980469 C 444.140625 397.535156 445.65625 392.167969 447.125 386.980469 C 447.261719 386.492188 447.398438 386.003906 447.542969 385.503906 C 449.414062 378.777344 456.382812 374.832031 463.105469 376.703125 C 469.835938 378.570312 473.769531 385.539062 471.902344 392.269531 C 471.757812 392.808594 471.601562 393.339844 471.457031 393.855469 C 470.246094 398.140625 469.511719 400.722656 469.65625 406.320312 C 470.058594 421.460938 476.085938 435.253906 481.085938 444.160156 C 484.496094 450.246094 482.328125 457.953125 476.230469 461.367188 C 474.277344 462.464844 472.160156 462.988281 470.066406 462.988281 " fill-opacity="1" fill-rule="evenodd"/><g clip-path="url(#83cf7329ce)"><path fill="#fb653e" d="M 672.363281 732.15625 L 137.714844 732.15625 C 130.753906 732.15625 125.097656 726.523438 125.078125 719.5625 C 124.960938 681.464844 126.734375 586.230469 145.75 524.941406 C 150.816406 508.578125 156.980469 495.210938 165.144531 482.882812 C 171.96875 472.554688 191.664062 446.570312 226.910156 428.660156 C 259.15625 412.269531 290.003906 409.816406 310.203125 410.660156 C 313.238281 410.777344 316.125 411.996094 318.339844 414.070312 L 374.265625 466.570312 C 379.359375 471.351562 379.605469 479.351562 374.832031 484.445312 C 370.054688 489.527344 362.054688 489.785156 356.964844 485 L 304.542969 435.800781 C 287.464844 435.628906 263.390625 438.476562 238.371094 451.199219 C 208.5 466.382812 191.960938 488.164062 186.234375 496.824219 C 179.34375 507.246094 174.300781 518.230469 169.894531 532.433594 C 153.542969 585.140625 150.765625 668.40625 150.40625 706.875 L 659.683594 706.875 C 659.324219 668.40625 656.546875 585.132812 640.1875 532.433594 C 635.789062 518.230469 630.746094 507.246094 623.855469 496.832031 C 618.125 488.164062 601.589844 466.382812 571.71875 451.199219 C 546.605469 438.433594 522.453125 435.640625 505.355469 435.800781 L 449.929688 485.222656 C 444.714844 489.871094 436.734375 489.40625 432.078125 484.203125 C 427.429688 478.992188 427.894531 471.003906 433.097656 466.355469 L 491.992188 413.847656 C 494.175781 411.902344 496.964844 410.769531 499.886719 410.648438 C 520.085938 409.816406 550.933594 412.269531 583.179688 428.660156 C 618.425781 446.570312 638.113281 472.554688 644.945312 482.882812 C 653.097656 495.210938 659.261719 508.578125 664.339844 524.941406 C 683.355469 586.230469 685.128906 681.453125 685.011719 719.5625 C 684.984375 726.523438 679.335938 732.15625 672.363281 732.15625 " fill-opacity="1" fill-rule="evenodd"/></g><g clip-path="url(#b3488e4520)"><path fill="#fb653e" d="M 796.957031 732.164062 L 13.132812 732.164062 C 6.144531 732.164062 0.484375 726.503906 0.484375 719.519531 C 0.484375 712.539062 6.144531 706.882812 13.132812 706.882812 L 796.957031 706.882812 C 803.945312 706.882812 809.601562 712.539062 809.601562 719.519531 C 809.601562 726.503906 803.945312 732.164062 796.957031 732.164062 " fill-opacity="1" fill-rule="evenodd"/></g><g clip-path="url(#49586f10f0)"><path fill="#fb653e" d="M 565.363281 732.164062 L 244.714844 732.164062 C 215.34375 732.164062 191.441406 708.261719 191.441406 678.882812 L 191.441406 672.933594 C 191.441406 665.957031 197.097656 660.296875 204.085938 660.296875 L 606.003906 660.296875 C 612.992188 660.296875 618.648438 665.957031 618.648438 672.933594 L 618.648438 678.882812 C 618.648438 708.261719 594.746094 732.164062 565.363281 732.164062 Z M 217.527344 685.578125 C 220.539062 697.792969 231.589844 706.882812 244.714844 706.882812 L 565.363281 706.882812 C 578.5 706.882812 589.550781 697.785156 592.550781 685.578125 L 217.527344 685.578125 " fill-opacity="1" fill-rule="evenodd"/></g><path fill="#fb653e" d="M 578.414062 685.578125 L 231.675781 685.578125 C 224.695312 685.578125 219.039062 679.921875 219.039062 672.933594 L 219.039062 496.859375 C 219.039062 478.273438 234.164062 463.148438 252.75 463.148438 L 557.339844 463.148438 C 575.925781 463.148438 591.050781 478.273438 591.050781 496.859375 L 591.050781 672.933594 C 591.050781 679.921875 585.390625 685.578125 578.414062 685.578125 Z M 244.320312 660.296875 L 565.765625 660.296875 L 565.765625 496.859375 C 565.765625 492.210938 561.984375 488.429688 557.339844 488.429688 L 252.75 488.429688 C 248.101562 488.429688 244.320312 492.210938 244.320312 496.859375 L 244.320312 660.296875 " fill-opacity="1" fill-rule="evenodd"/><path fill="#fb653e" d="M 355.128906 622.613281 C 352.453125 622.613281 349.761719 621.761719 347.472656 620.015625 L 300.839844 584.402344 C 297.710938 582.011719 295.867188 578.300781 295.867188 574.363281 C 295.867188 570.421875 297.710938 566.707031 300.839844 564.316406 L 347.472656 528.707031 C 353.019531 524.46875 360.949219 525.535156 365.183594 531.078125 C 369.429688 536.625 368.367188 544.566406 362.808594 548.800781 L 329.339844 574.363281 L 362.820312 599.929688 C 368.367188 604.164062 369.429688 612.09375 365.183594 617.648438 C 362.699219 620.898438 358.933594 622.613281 355.128906 622.613281 " fill-opacity="1" fill-rule="evenodd"/><path fill="#fb653e" d="M 454.953125 622.613281 C 451.144531 622.613281 447.390625 620.898438 444.894531 617.640625 C 440.660156 612.09375 441.722656 604.164062 447.269531 599.929688 L 480.742188 574.363281 L 447.269531 548.800781 C 441.722656 544.566406 440.660156 536.625 444.894531 531.078125 C 449.140625 525.535156 457.070312 524.46875 462.617188 528.707031 L 509.25 564.316406 C 512.378906 566.707031 514.214844 570.421875 514.214844 574.363281 C 514.214844 578.300781 512.378906 582.011719 509.25 584.402344 L 462.617188 620.015625 C 460.328125 621.761719 457.628906 622.613281 454.953125 622.613281 " fill-opacity="1" fill-rule="evenodd"/><path fill="#fb653e" d="M 389.816406 641.523438 C 388.6875 641.523438 387.546875 641.367188 386.40625 641.050781 C 379.683594 639.175781 375.757812 632.195312 377.625 625.476562 L 408.105469 516.445312 C 409.984375 509.714844 416.953125 505.789062 423.683594 507.667969 C 430.40625 509.554688 434.332031 516.523438 432.453125 523.246094 L 401.984375 632.28125 C 400.421875 637.863281 395.339844 641.523438 389.816406 641.523438 " fill-opacity="1" fill-rule="evenodd"/></svg>

<svg xmlns="http://www.w3.org/2000/svg" width="1080" height="1080" version="1.0" viewBox="0 0 810 810"><defs><clipPath id="a"><path d="M125 410.23h560.285v321.73H125Zm0 0"/></clipPath><clipPath id="b"><path d="M.484 706.504h809.118v25.457H.484Zm0 0"/></clipPath><clipPath id="c"><path d="M191.441 660H619v71.96H191.441Zm0 0"/></clipPath></defs><path fill="#fb653e" fill-rule="evenodd" d="M512.113 245.54a12.878 12.878 0 0 1-9.312-3.997c-1.946-2.047-3.13-4.414-5.102-8.324-3.394-6.754-9.703-19.313-22.746-35.836-5.39-6.832-7.52-9.13-9.02-10.594-1.019-.996-3.402-3.23-6.831-5.871a51.613 51.613 0 0 1-10.579 8.793c-13.316 8.309-26.777 7.98-36.593 7.742l-.703-.016c-.309-.011-30.961-.703-63.668 1.56l-1.57.1c-10.587.723-21.548 1.477-29.759 5.848-7.828 4.176-12.433 12.953-15.382 29.364-.875 4.816-4.25 8.812-8.84 10.433-5.598 1.969-11.582.102-15.25-4.77-6.305-8.374-7.528-19.511-8.422-27.644l-.035-.277c-1.258-11.469-3.703-39.32.824-50.106 2.453-5.828 9.809-21.011 25.191-35.879 30.223-29.199 79.957-40.675 89.622-42.683 18.87-3.918 36.917-5.313 53.636-4.149 11.77.817 21.742 2.29 30.469 4.5 11.687 2.957 20.86 8.711 26.535 16.633 2.934 4.098 4.735 8.29 6.313 11.992 1.457 3.414 2.718 6.352 4.441 8.188 2.39 2.562 5.648 4.879 9.098 7.34 3.832 2.734 8.175 5.828 12.093 9.824 9.57 9.754 20.383 26.094 22.055 42.707 1.559 15.535-5.18 28.969-11.215 38.937-.695 1.141-4.031 6.32-7.347 11.188-6.73 9.836-9.98 14.215-16.555 14.926-.45.043-.902.07-1.348.07Zm-55.754-93.563c5.657 0 10.332 3.265 13.305 5.347l.285.196c6.676 4.648 11.426 9.011 13.664 11.199 2.438 2.375 5.266 5.504 11.188 13.004 8.637 10.945 14.644 20.336 18.89 27.734a123.982 123.982 0 0 0 2.047-3.207c5.942-9.809 8.309-17 7.684-23.3-.817-8.067-6.961-19.395-14.953-27.548-2.348-2.39-5.434-4.593-8.711-6.925-4.113-2.93-8.77-6.25-12.887-10.649-4.758-5.082-7.234-10.879-9.223-15.531-1.238-2.883-2.3-5.36-3.62-7.211-2.126-2.957-6.446-5.39-12.192-6.84-7.254-1.844-15.766-3.078-26.02-3.789-14.414-1.004-30.136.23-46.734 3.676-23.39 4.851-57.644 17.222-77.191 36.117-12.07 11.66-17.754 23.508-19.352 27.246-.523 2.004-1.055 9.078-.488 20.719a44.96 44.96 0 0 1 12.289-9.574c12.988-6.93 27.305-7.907 39.933-8.762l1.543-.106c33.926-2.347 64.715-1.644 66.012-1.609l.719.016c8.426.207 15.7.379 22.582-3.918 3.586-2.235 6.664-5.442 9.156-9.54 2-3.32 5.188-5.59 8.988-6.413a14.39 14.39 0 0 1 3.086-.332Zm9.63 19.722c-.02.028-.036.07-.063.098.027-.027.043-.07.062-.098Zm0 0"/><path fill="#fb653e" fill-rule="evenodd" d="M406.254 418.375c-7.117 0-15.211-.688-23.922-2.605-7.766-1.715-27.977-7.454-47.805-23.688-9.5-7.785-26.93-24.957-36.836-52.5-2.52-7.004-4.214-14.48-5.246-19.914-6.66-3.172-12.773-7.777-17.988-13.606-6.996-7.82-11.871-17.292-14.11-27.382-4.554-20.59 2.419-40.762 19.137-55.344 5.254-4.598 13.246-4.055 17.832 1.207 4.594 5.254 4.055 13.246-1.21 17.832-12.395 10.82-12.86 22.742-11.067 30.844 2.598 11.746 11.738 22.074 22.223 25.117a12.65 12.65 0 0 1 9.004 10.453c.777 5.719 2.605 14.969 5.218 22.238 8.137 22.63 23.04 36.563 29.067 41.493 15.601 12.78 31.234 17.238 37.226 18.558 17.055 3.762 31.114 1.285 36.36.043 14.328-3.379 24.023-10.047 28.168-12.902 2.992-2.047 10.793-7.844 18.765-17.281 11.516-13.633 20.035-32.235 24.633-53.797a12.657 12.657 0 0 1 10.262-9.832c8.172-1.372 18.578-15.5 19.746-31.66.805-11.145-2.934-18.13-11.121-20.762-6.645-2.137-10.305-9.258-8.16-15.903 2.132-6.644 9.25-10.304 15.902-8.16 10.418 3.344 18.52 10.02 23.441 19.313 4.106 7.742 5.883 17.199 5.153 27.332-1.5 20.789-13.64 43.976-32.184 52.18-5.797 22.82-15.312 42.171-28.363 57.609-9.586 11.344-18.992 18.527-23.75 21.793-4.86 3.344-17.746 12.207-36.676 16.676-5.101 1.207-13.375 2.648-23.7 2.648"/><path fill="#fb653e" fill-rule="evenodd" d="M339.758 459.043c-1.887 0-3.801-.422-5.61-1.32-6.25-3.102-8.804-10.68-5.703-16.942 3.285-6.625 8.852-19.902 9.235-34.469.148-5.582-.582-8.16-1.801-12.44-.34-1.208-.727-2.579-1.113-4.087-1.739-6.765 2.34-13.648 9.105-15.383 6.758-1.738 13.649 2.344 15.383 9.098.308 1.2.625 2.305.95 3.473 1.476 5.195 3 10.57 2.753 20.007-.508 19.41-7.648 36.555-11.867 45.043-2.203 4.45-6.68 7.02-11.332 7.02M470.066 462.988a12.662 12.662 0 0 1-11.043-6.465c-6.378-11.394-14.101-29.234-14.644-49.543-.238-9.445 1.277-14.812 2.746-20 .137-.488.273-.976.418-1.476 1.871-6.727 8.84-10.672 15.562-8.8 6.73 1.866 10.665 8.835 8.797 15.566-.144.539-.3 1.07-.445 1.585-1.21 4.286-1.945 6.868-1.8 12.465.402 15.14 6.429 28.934 11.429 37.84 3.41 6.086 1.242 13.793-4.856 17.207a12.543 12.543 0 0 1-6.164 1.621"/><g clip-path="url(#a)"><path fill="#fb653e" fill-rule="evenodd" d="M672.363 732.156H137.715c-6.961 0-12.617-5.633-12.637-12.593-.117-38.098 1.656-133.333 20.672-194.622 5.066-16.363 11.23-29.73 19.395-42.058 6.824-10.328 26.52-36.313 61.765-54.223 32.246-16.39 63.094-18.844 83.293-18a12.625 12.625 0 0 1 8.137 3.41l55.926 52.5c5.093 4.782 5.34 12.782.566 17.875-4.777 5.082-12.777 5.34-17.867.555l-52.422-49.2c-17.078-.171-41.152 2.677-66.172 15.4-29.871 15.183-46.41 36.964-52.137 45.624-6.89 10.422-11.933 21.406-16.34 35.61-16.351 52.707-19.128 135.972-19.488 174.441h509.278c-.36-38.469-3.137-121.742-19.496-174.441-4.399-14.204-9.442-25.188-16.333-35.602-5.73-8.668-22.265-30.45-52.136-45.633-25.114-12.765-49.266-15.558-66.364-15.398l-55.425 49.422c-5.215 4.648-13.196 4.183-17.852-1.02-4.648-5.21-4.183-13.2 1.02-17.848l58.894-52.507a12.659 12.659 0 0 1 7.895-3.2c20.199-.832 51.047 1.622 83.293 18.012 35.246 17.91 54.933 43.895 61.765 54.223 8.153 12.328 14.317 25.695 19.395 42.058 19.015 61.29 20.789 156.512 20.672 194.621-.028 6.961-5.676 12.594-12.649 12.594"/></g><g clip-path="url(#b)"><path fill="#fb653e" fill-rule="evenodd" d="M796.957 732.164H13.133c-6.988 0-12.649-5.66-12.649-12.644 0-6.98 5.66-12.637 12.649-12.637h783.824c6.988 0 12.645 5.656 12.645 12.637 0 6.984-5.657 12.644-12.645 12.644"/></g><g clip-path="url(#c)"><path fill="#fb653e" fill-rule="evenodd" d="M565.363 732.164H244.715c-29.371 0-53.274-23.902-53.274-53.281v-5.95c0-6.976 5.657-12.636 12.645-12.636h401.918c6.988 0 12.644 5.66 12.644 12.637v5.949c0 29.379-23.902 53.281-53.285 53.281Zm-347.836-46.586c3.012 12.215 14.063 21.305 27.188 21.305h320.648c13.137 0 24.188-9.098 27.188-21.305H217.527"/></g><path fill="#fb653e" fill-rule="evenodd" d="M578.414 685.578H231.676c-6.98 0-12.637-5.656-12.637-12.644V496.859c0-18.586 15.125-33.71 33.711-33.71h304.59c18.586 0 33.71 15.124 33.71 33.71v176.075c0 6.988-5.66 12.644-12.636 12.644ZM244.32 660.297h321.446V496.859c0-4.648-3.782-8.43-8.426-8.43H252.75c-4.648 0-8.43 3.782-8.43 8.43v163.438"/><path fill="#fb653e" fill-rule="evenodd" d="M355.129 622.613c-2.676 0-5.367-.851-7.656-2.597l-46.633-35.614a12.64 12.64 0 0 1-4.973-10.039 12.65 12.65 0 0 1 4.973-10.047l46.633-35.609c5.547-4.238 13.476-3.172 17.71 2.371 4.247 5.547 3.184 13.488-2.374 17.723l-33.47 25.562 33.481 25.567c5.547 4.234 6.61 12.164 2.364 17.718a12.633 12.633 0 0 1-10.055 4.965M454.953 622.613a12.637 12.637 0 0 1-10.058-4.972c-4.235-5.547-3.172-13.477 2.375-17.711l33.472-25.567-33.472-25.562c-5.547-4.235-6.61-12.176-2.375-17.723 4.246-5.543 12.175-6.61 17.722-2.371l46.633 35.61a12.643 12.643 0 0 1 0 20.085l-46.633 35.614a12.608 12.608 0 0 1-7.664 2.597M389.816 641.523c-1.128 0-2.27-.156-3.41-.472-6.722-1.875-10.648-8.856-8.781-15.574l30.48-109.032c1.88-6.73 8.848-10.656 15.579-8.777 6.722 1.887 10.648 8.855 8.77 15.578l-30.47 109.035c-1.562 5.582-6.644 9.242-12.168 9.242"/></svg>
